public/clients/aikido.svg

<svg width="88" height="20" viewBox="0 0 88 20" fill="none" xmlns="http://www.w3.org/2000/svg">
<path d="M17.7734 0H0V6.27986H17.7734V0Z" fill="#442b75"/>
<path d="M0 12.17C5.05633 7.59294 12.717 7.59294 17.7734 12.17V19.9965L17.7699 20L8.8867 10.9837L0.00348452 20L0 19.9965V12.17Z" fill="#442b75"/>
<path d="M38.6356 13.9485H38.2545C37.8947 13.9485 37.6195 13.8847 37.429 13.7358C37.2385 13.587 37.1327 13.2892 37.1327 12.8214V9.01465C37.1327 7.69612 36.7305 6.6328 35.9473 5.8034C35.1642 4.97401 33.873 4.56994 32.0949 4.56994C30.4862 4.56994 29.2374 4.93147 28.3695 5.63327C27.5017 6.35633 26.9725 7.33459 26.8244 8.58932H29.6396C29.8301 7.33459 30.6344 6.71786 32.0103 6.71786C32.8358 6.71786 33.4285 6.93053 33.746 7.35586C34.0635 7.78119 34.2328 8.37665 34.2328 9.14225V9.46125H31.9468C30.1476 9.46125 28.7717 9.78024 27.8404 10.4395C26.909 11.0988 26.4433 11.992 26.4433 13.1191C26.4433 14.2675 26.8667 15.1181 27.7134 15.6711C28.5601 16.2453 29.5549 16.5217 30.7191 16.5217C32.5183 16.5217 33.8518 15.8837 34.6773 14.5865C34.8678 15.2032 35.1853 15.6498 35.6298 15.8837C36.0743 16.1389 36.7305 16.2665 37.6407 16.2665H38.6356V13.9485ZM31.3753 14.3738C30.7403 14.3738 30.2534 14.225 29.9147 13.9485C29.5549 13.672 29.3856 13.3105 29.3856 12.8639C29.3856 11.8218 30.3592 11.2902 32.3278 11.2902H34.2751C34.2751 12.3535 34 13.1404 33.4285 13.6295C32.857 14.1186 32.1796 14.3738 31.3753 14.3738Z" fill="#442b75"/>
<path d="M40.4539 0.869565V3.61295H43.3538V0.869565H40.4539ZM40.4539 4.82514V16.2665H43.3538V4.82514H40.4539Z" fill="#442b75"/>
<path d="M45.8239 0.869565V16.2665H48.7238V12.9702L50.2055 11.439L53.4864 16.2665H56.9154L52.174 9.33365L56.4921 4.82514H52.9148L48.7238 9.24858V0.869565H45.8239Z" fill="#442b75"/>
<path d="M58.2929 0.869565V3.61295H61.1928V0.869565H58.2929ZM58.2929 4.82514V16.2665H61.1928V4.82514H58.2929Z" fill="#442b75"/>
<path d="M74.7514 0.869565H71.8515V6.5052C71.0684 5.20794 69.8618 4.56994 68.2743 4.56994C66.7715 4.56994 65.5438 5.10161 64.6336 6.1862C63.7234 7.27079 63.2577 8.73818 63.2577 10.5458C63.2577 12.3535 63.7234 13.7996 64.6336 14.8842C65.5438 15.9688 66.7715 16.5217 68.2743 16.5217C69.8618 16.5217 71.0684 15.8837 71.8515 14.5865V16.2665H74.7514V0.869565ZM69.0575 14.2037C68.105 14.2037 67.4065 13.8634 66.9196 13.1616C66.4328 12.4811 66.2 11.6092 66.2 10.5458C66.2 9.48251 66.4328 8.61059 66.9196 7.90879C67.4065 7.20699 68.105 6.86673 69.0575 6.86673C69.9889 6.86673 70.7085 7.20699 71.2377 7.86626C71.7457 8.54679 71.9997 9.43998 71.9997 10.5458C71.9997 11.6517 71.7457 12.5449 71.2377 13.2042C70.7085 13.8634 69.9889 14.2037 69.0575 14.2037Z" fill="#442b75"/>
<path d="M82.2637 16.5217C84.0418 16.5217 85.4388 15.9901 86.476 14.9055C87.492 13.8209 88 12.3748 88 10.5458C88 8.71692 87.492 7.27079 86.476 6.1862C85.4388 5.10161 84.0418 4.56994 82.2637 4.56994C80.4645 4.56994 79.0675 5.10161 78.0515 6.1862C77.0355 7.27079 76.5275 8.71692 76.5275 10.5458C76.5275 12.3748 77.0355 13.8209 78.0515 14.9055C79.0675 15.9901 80.4645 16.5217 82.2637 16.5217ZM82.2637 14.2037C81.3536 14.2037 80.6762 13.8847 80.1894 13.2467C79.7025 12.63 79.4697 11.7155 79.4697 10.5458C79.4697 9.37618 79.7025 8.46172 80.1894 7.82372C80.6762 7.18573 81.3536 6.86673 82.2637 6.86673C83.1739 6.86673 83.8513 7.18573 84.3381 7.82372C84.825 8.46172 85.0578 9.37618 85.0578 10.5458C85.0578 11.7155 84.825 12.63 84.3381 13.2467C83.8513 13.8847 83.1739 14.2037 82.2637 14.2037Z" fill="#442b75"/>
</svg>

<svg xmlns="http://www.w3.org/2000/svg" fill="none" viewBox="0 0 88 20"><path fill="#442b75" d="M17.773 0H0v6.28h17.773V0ZM0 12.17a13.22 13.22 0 0 1 17.773 0v7.827L17.77 20l-8.883-9.016L.003 20 0 19.997V12.17ZM38.636 13.948h-.382c-.36 0-.634-.063-.825-.212-.19-.149-.296-.447-.296-.915V9.015c0-1.319-.403-2.382-1.186-3.212-.783-.829-2.074-1.233-3.852-1.233-1.609 0-2.858.361-3.726 1.063-.867.723-1.396 1.702-1.545 2.956h2.816c.19-1.254.994-1.871 2.37-1.871.826 0 1.419.213 1.736.638.317.425.487 1.02.487 1.786v.32h-2.286c-1.8 0-3.175.318-4.107.978-.931.659-1.397 1.552-1.397 2.68 0 1.148.424 1.998 1.27 2.551.847.574 1.842.85 3.006.85 1.8 0 3.133-.637 3.958-1.935.19.617.508 1.064.953 1.298.444.255 1.1.383 2.01.383h.996v-2.319Zm-7.26.426c-.636 0-1.123-.149-1.461-.426a1.294 1.294 0 0 1-.53-1.084c0-1.042.974-1.574 2.943-1.574h1.947c0 1.064-.275 1.85-.846 2.34-.572.489-1.25.744-2.054.744ZM40.454.87v2.743h2.9V.87h-2.9Zm0 3.955v11.441h2.9V4.827h-2.9ZM45.824.87v15.397h2.9V12.97l1.482-1.531 3.28 4.828h3.43l-4.742-6.933 4.318-4.509h-3.577L48.724 9.25V.869h-2.9ZM58.293.87v2.743h2.9V.87h-2.9Zm0 3.955v11.441h2.9V4.827h-2.9ZM74.751.87h-2.9v5.635c-.783-1.297-1.99-1.935-3.577-1.935-1.502 0-2.73.532-3.64 1.616-.91 1.085-1.376 2.552-1.376 4.36 0 1.808.465 3.254 1.376 4.338.91 1.085 2.138 1.638 3.64 1.638 1.588 0 2.794-.638 3.578-1.935v1.68h2.9V.87Zm-5.694 13.334c-.952 0-1.65-.34-2.137-1.042-.487-.68-.72-1.553-.72-2.616 0-1.063.233-1.935.72-2.637.486-.702 1.185-1.042 2.138-1.042.93 0 1.65.34 2.18 1 .508.68.762 1.573.762 2.679 0 1.106-.254 1.999-.762 2.658-.53.66-1.25 1-2.18 1ZM82.264 16.522c1.778 0 3.175-.532 4.212-1.616C87.492 13.82 88 12.374 88 10.546c0-1.83-.508-3.275-1.524-4.36-1.037-1.084-2.434-1.616-4.212-1.616-1.8 0-3.197.532-4.212 1.616-1.017 1.085-1.525 2.53-1.525 4.36 0 1.829.508 3.275 1.525 4.36 1.015 1.084 2.412 1.616 4.212 1.616Zm0-2.318c-.91 0-1.588-.32-2.075-.957-.486-.617-.72-1.531-.72-2.701 0-1.17.234-2.084.72-2.722.487-.638 1.165-.957 2.075-.957.91 0 1.587.319 2.074.957.487.638.72 1.552.72 2.722s-.233 2.084-.72 2.7c-.487.639-1.164.958-2.074.958Z"/></svg>
